X: 37882
T: Soup Dragon, The
R: jig
M: 6/8
K: Eminor
A|:"E" BEE "E" EDE|"A" ABB "B" BAG|"A" AAA "A"A2G|"A" ABB "A"AGA|
"E" BEE "E" EDE|"A" ABB "B" BAG|"A" AAA "B"B2A|"G" GED "E"E2 A:|
"B" Bdd "D" dBG|"A" ABB "B" BAG|"A" AAA "A"A2G|"A" ABB "A"AGA|
[1 "B" Bdd "D" dBG|"A" ABB "B" BAG|"A" AAA "B"B2A|"G" GED "E"E2 A:|
[2 "E" BEE "E" EDE|"A" ABB "B" BAG|"A" AAA "B"B2A|"G" GED "E"E2 A||

